dist/img/svg/racing.svg

<svg width="20" height="19" viewBox="0 0 20 19" fill="none" xmlns="http://www.w3.org/2000/svg">
<path d="M13.8748 0.818277C12.6484 0.272759 11.3568 0 10 0C8.64318 0 7.34508 0.272759 6.10568 0.818277C4.87932 1.35049 3.81605 2.07563 2.91585 2.9937C2.0287 3.89846 1.31768 4.98284 0.782779 6.24685C0.260926 7.51085 0 8.83473 0 10.2185C0 11.9748 0.410959 13.618 1.23288 15.1481C2.06784 16.6782 3.22244 17.9156 4.69667 18.8603C4.84018 18.9534 4.99674 18.98 5.16634 18.9401C5.33594 18.9002 5.46641 18.8071 5.55773 18.6607C5.64905 18.5144 5.67515 18.3547 5.63601 18.1817C5.59687 18.0088 5.50554 17.8757 5.36204 17.7826C4.30528 17.104 3.43118 16.2458 2.73973 15.208L3.40509 14.8088C3.5486 14.729 3.63992 14.6026 3.67906 14.4296C3.73125 14.2567 3.71168 14.097 3.62035 13.9506C3.54207 13.791 3.41813 13.6912 3.24853 13.6513C3.07893 13.598 2.92237 13.618 2.77886 13.7111L2.1135 14.0903C1.87867 13.5847 1.6895 13.0592 1.54599 12.5137C1.40248 11.9681 1.31115 11.4093 1.27202 10.8372H1.95695C2.1396 10.8372 2.28963 10.7773 2.40704 10.6576C2.52446 10.5245 2.58317 10.3715 2.58317 10.1985C2.58317 10.0256 2.52446 9.8792 2.40704 9.75945C2.28963 9.6264 2.1396 9.55987 1.95695 9.55987H1.27202C1.35029 8.40231 1.64384 7.30462 2.15264 6.26681L2.77886 6.64601C2.87019 6.69923 2.97456 6.72584 3.09198 6.72584C3.32681 6.72584 3.50294 6.6194 3.62035 6.40651C3.71168 6.26015 3.73125 6.10049 3.67906 5.92752C3.63992 5.75455 3.5486 5.62815 3.40509 5.54832L2.77886 5.16912C3.41813 4.22444 4.20091 3.43277 5.1272 2.79412L5.47945 3.41282C5.59687 3.6257 5.77952 3.73214 6.0274 3.73214C6.13177 3.73214 6.23614 3.70553 6.34051 3.65231C6.40574 3.6124 6.46445 3.55917 6.51663 3.49265C6.56882 3.41282 6.60144 3.33964 6.61448 3.27311C6.64057 3.19328 6.6471 3.11345 6.63405 3.03361C6.63405 2.94048 6.60796 2.85399 6.55577 2.77416L6.20352 2.15546C6.69928 1.91597 7.20809 1.72969 7.72994 1.59664C8.26484 1.45028 8.80626 1.35049 9.35421 1.29727V2.09559C9.35421 2.28186 9.41292 2.43487 9.53033 2.55462C9.6608 2.67437 9.81083 2.73424 9.98043 2.73424C10.1631 2.73424 10.3131 2.67437 10.4305 2.55462C10.5479 2.43487 10.6067 2.28186 10.6067 2.09559V1.29727C11.7417 1.3771 12.818 1.66982 13.8356 2.17542L13.4834 2.77416C13.4703 2.81408 13.4573 2.85399 13.4442 2.89391C13.4312 2.92052 13.4181 2.95378 13.4051 2.9937C13.4051 3.03361 13.4051 3.07353 13.4051 3.11345C13.4051 3.14006 13.4051 3.17332 13.4051 3.21324C13.4181 3.25315 13.4312 3.29307 13.4442 3.33298C13.4573 3.35959 13.4703 3.39286 13.4834 3.43277C13.5095 3.45938 13.529 3.48599 13.5421 3.51261C13.5682 3.53922 13.5943 3.56583 13.6204 3.59244C13.6464 3.61905 13.6791 3.63901 13.7182 3.65231C13.7443 3.66562 13.7704 3.67892 13.7965 3.69223C13.8226 3.70553 13.8487 3.71884 13.8748 3.73214C13.9008 3.73214 13.9269 3.73214 13.953 3.73214C13.9791 3.73214 14.0052 3.73214 14.0313 3.73214C14.0835 3.73214 14.1357 3.72549 14.1879 3.71219C14.2401 3.69888 14.2857 3.67892 14.3249 3.65231C14.377 3.6257 14.4227 3.59244 14.4618 3.55252C14.514 3.51261 14.5532 3.46604 14.5793 3.41282L14.9119 2.81408C15.8382 3.46604 16.6145 4.2577 17.2407 5.18908L16.6536 5.54832C16.5753 5.58824 16.5101 5.64146 16.4579 5.70798C16.4188 5.77451 16.3862 5.84769 16.3601 5.92752C16.334 6.00735 16.3275 6.09384 16.3405 6.18698C16.3536 6.26681 16.3796 6.33999 16.4188 6.40651C16.484 6.51296 16.5623 6.59279 16.6536 6.64601C16.758 6.69923 16.8624 6.72584 16.9667 6.72584C17.0189 6.72584 17.0711 6.71919 17.1233 6.70588C17.1755 6.69258 17.2277 6.67262 17.2798 6.64601L17.8669 6.30672C18.3627 7.33123 18.6497 8.42227 18.728 9.57983H18.0431C17.8735 9.57983 17.7234 9.64636 17.593 9.77941C17.4755 9.89916 17.4168 10.0455 17.4168 10.2185C17.4168 10.3915 17.4755 10.5445 17.593 10.6775C17.7234 10.7973 17.8735 10.8571 18.0431 10.8571H18.728C18.6497 11.9881 18.3757 13.0592 17.9061 14.0704L17.2798 13.7111C17.1233 13.618 16.9602 13.598 16.7906 13.6513C16.6341 13.6912 16.5101 13.791 16.4188 13.9506C16.3796 14.0172 16.3536 14.097 16.3405 14.1901C16.3275 14.27 16.334 14.3498 16.3601 14.4296C16.3862 14.5095 16.4188 14.5826 16.4579 14.6492C16.5101 14.7157 16.5753 14.7689 16.6536 14.8088L17.2798 15.188C16.5753 16.2525 15.6751 17.1306 14.5793 17.8225C14.4357 17.9156 14.3444 18.0487 14.3053 18.2216C14.2661 18.3813 14.2922 18.541 14.3836 18.7006C14.4227 18.7539 14.4684 18.8004 14.5205 18.8403C14.5858 18.8936 14.651 18.9335 14.7162 18.9601C14.7815 18.9867 14.8467 19 14.9119 19C15.0294 19 15.1402 18.9667 15.2446 18.9002C16.7319 17.9688 17.893 16.7381 18.728 15.208C19.576 13.6646 20 11.9947 20 10.1985C20 8.82808 19.7325 7.51085 19.1977 6.24685C18.6758 4.98284 17.9648 3.89846 17.0646 2.9937C16.1774 2.07563 15.1142 1.35049 13.8748 0.818277ZM14.6184 8.22269C14.7228 8.15616 14.801 8.07633 14.8532 7.98319C14.9054 7.87675 14.9315 7.77031 14.9315 7.66387C14.9315 7.55742 14.9054 7.45098 14.8532 7.34454C14.7619 7.19818 14.6314 7.10504 14.4618 7.06513C14.3053 7.01191 14.1487 7.02521 13.9922 7.10504L10.5871 9.1208C10.3914 9.00105 10.1892 8.94118 9.98043 8.94118C9.64123 8.94118 9.34768 9.06758 9.0998 9.32038C8.85192 9.57318 8.72798 9.87255 8.72798 10.2185C8.72798 10.4447 8.78017 10.6576 8.88454 10.8571C9.00196 11.0567 9.15851 11.2164 9.35421 11.3361C9.5499 11.4426 9.75864 11.4958 9.98043 11.4958C10.3196 11.4958 10.6132 11.3694 10.8611 11.1166C11.1089 10.8638 11.2329 10.5644 11.2329 10.2185L14.6184 8.22269Z" fill="#C78E66"/>
</svg>

<svg width="20" height="19" viewBox="0 0 20 19" fill="none" xmlns="http://www.w3.org/2000/svg"><path d="M13.875.818A9.43 9.43 0 0 0 10 0a9.564 9.564 0 0 0-3.894.818 9.981 9.981 0 0 0-3.19 2.176c-.887.904-1.598 1.989-2.133 3.253A10.307 10.307 0 0 0 0 10.219c0 1.756.411 3.399 1.233 4.93a10.076 10.076 0 0 0 3.464 3.711c.143.093.3.12.47.08.169-.04.3-.133.39-.28a.615.615 0 0 0 .079-.478.62.62 0 0 0-.274-.4 8.884 8.884 0 0 1-2.622-2.574l.665-.4a.55.55 0 0 0 .274-.378.56.56 0 0 0-.059-.48.533.533 0 0 0-.371-.299.53.53 0 0 0-.47.06l-.665.38a9.43 9.43 0 0 1-.568-1.577 8.986 8.986 0 0 1-.274-1.677h.685c.183 0 .333-.06.45-.18a.674.674 0 0 0 .176-.459.603.603 0 0 0-.176-.439.573.573 0 0 0-.45-.2h-.685a8.752 8.752 0 0 1 .88-3.292l.627.379a.61.61 0 0 0 .313.08.568.568 0 0 0 .528-.32.56.56 0 0 0 .06-.478.55.55 0 0 0-.275-.38L2.78 5.17a8.947 8.947 0 0 1 2.348-2.375l.352.619c.118.213.3.32.548.32a.684.684 0 0 0 .314-.08.666.666 0 0 0 .176-.16.636.636 0 0 0 .097-.22.5.5 0 0 0 .02-.24.465.465 0 0 0-.078-.259l-.352-.619a8.106 8.106 0 0 1 1.526-.558 9.695 9.695 0 0 1 1.624-.3v.799a.63.63 0 0 0 .176.459c.13.12.28.18.45.18.183 0 .333-.06.45-.18a.628.628 0 0 0 .177-.46v-.798a8.534 8.534 0 0 1 3.229.878l-.353.6-.039.119a.784.784 0 0 0-.039.1v.22l.04.119c.012.027.025.06.038.1a.313.313 0 0 1 .06.08l.077.08a.244.244 0 0 0 .098.06l.079.04.078.04h.156a.632.632 0 0 0 .157-.02.431.431 0 0 0 .137-.06.523.523 0 0 0 .137-.1.394.394 0 0 0 .117-.14l.333-.599A9.074 9.074 0 0 1 17.24 5.19l-.587.36a.58.58 0 0 0-.196.159c-.04.067-.072.14-.098.22a.571.571 0 0 0-.02.259.68.68 0 0 0 .313.459c.105.053.21.08.314.08a.632.632 0 0 0 .156-.02.753.753 0 0 0 .157-.06l.587-.34a8.807 8.807 0 0 1 .861 3.274h-.685c-.17 0-.32.066-.45.2a.603.603 0 0 0-.176.439c0 .173.058.325.176.459.13.12.28.18.45.18h.685a9.047 9.047 0 0 1-.822 3.212l-.626-.359a.579.579 0 0 0-.49-.06.59.59 0 0 0-.371.3.645.645 0 0 0-.079.24.501.501 0 0 0 .02.239c.026.08.059.153.098.22a.58.58 0 0 0 .196.159l.626.379a8.888 8.888 0 0 1-2.7 2.635.62.62 0 0 0-.275.399.631.631 0 0 0 .079.479.849.849 0 0 0 .332.26c.066.026.13.039.196.039a.609.609 0 0 0 .333-.1 9.867 9.867 0 0 0 3.483-3.692A10.237 10.237 0 0 0 20 10.198c0-1.37-.267-2.687-.802-3.951-.522-1.264-1.233-2.349-2.133-3.253a9.702 9.702 0 0 0-3.19-2.176zm.743 7.405a.68.68 0 0 0 .235-.24.72.72 0 0 0 .079-.32.72.72 0 0 0-.079-.318.608.608 0 0 0-.391-.28.583.583 0 0 0-.47.04l-3.405 2.016a1.147 1.147 0 0 0-.607-.18c-.339 0-.632.127-.88.38a1.24 1.24 0 0 0-.372.898c0 .226.052.439.157.638.117.2.274.36.47.48.195.106.404.159.625.159.34 0 .633-.127.881-.38a1.24 1.24 0 0 0 .372-.897l3.385-1.996z" fill="#C78E66"/></svg>
